svgs/thin/building-flag.svg

<svg xmlns="http://www.w3.org/2000/svg" viewBox="0 0 640 512"><!--! Font Awesome Pro 6.5.1 by @fontawesome - https://fontawesome.com License - https://fontawesome.com/license (Commercial License) Copyright 2023 Fonticons, Inc. --><path d="M48 16C30.3 16 16 30.3 16 48V464c0 17.7 14.3 32 32 32h96V416c0-26.5 21.5-48 48-48s48 21.5 48 48v80h96c17.7 0 32-14.3 32-32V48c0-17.7-14.3-32-32-32H48zM224 496V416c0-17.7-14.3-32-32-32s-32 14.3-32 32v80h64zm-80 16H48c-26.5 0-48-21.5-48-48V48C0 21.5 21.5 0 48 0H336c26.5 0 48 21.5 48 48V464c0 26.5-21.5 48-48 48H240 224 160 144zM104 232h32c13.3 0 24 10.7 24 24v32c0 13.3-10.7 24-24 24H104c-13.3 0-24-10.7-24-24V256c0-13.3 10.7-24 24-24zm-8 24v32c0 4.4 3.6 8 8 8h32c4.4 0 8-3.6 8-8V256c0-4.4-3.6-8-8-8H104c-4.4 0-8 3.6-8 8zm128 0c0-13.3 10.7-24 24-24h32c13.3 0 24 10.7 24 24v32c0 13.3-10.7 24-24 24H248c-13.3 0-24-10.7-24-24V256zm24-8c-4.4 0-8 3.6-8 8v32c0 4.4 3.6 8 8 8h32c4.4 0 8-3.6 8-8V256c0-4.4-3.6-8-8-8H248zM104 104h32c13.3 0 24 10.7 24 24v32c0 13.3-10.7 24-24 24H104c-13.3 0-24-10.7-24-24V128c0-13.3 10.7-24 24-24zm-8 24v32c0 4.4 3.6 8 8 8h32c4.4 0 8-3.6 8-8V128c0-4.4-3.6-8-8-8H104c-4.4 0-8 3.6-8 8zm128 0c0-13.3 10.7-24 24-24h32c13.3 0 24 10.7 24 24v32c0 13.3-10.7 24-24 24H248c-13.3 0-24-10.7-24-24V128zm24-8c-4.4 0-8 3.6-8 8v32c0 4.4 3.6 8 8 8h32c4.4 0 8-3.6 8-8V128c0-4.4-3.6-8-8-8H248zM424 0c4.4 0 8 3.6 8 8V32H616c13.3 0 24 10.7 24 24V184c0 13.3-10.7 24-24 24H432V504c0 4.4-3.6 8-8 8s-8-3.6-8-8V208 192 48 32 8c0-4.4 3.6-8 8-8zm8 192H616c4.4 0 8-3.6 8-8V56c0-4.4-3.6-8-8-8H432V192z"/></svg>

<svg xmlns="http://www.w3.org/2000/svg" viewBox="0 0 640 512"><!--! Font Awesome Pro 6.1.1 by @fontawesome - https://fontawesome.com License - https://fontawesome.com/license (Commercial License) Copyright 2022 Fonticons, Inc. --><path d="M136 232C149.3 232 160 242.7 160 256V288C160 301.3 149.3 312 136 312H104C90.75 312 80 301.3 80 288V256C80 242.7 90.75 232 104 232H136zM96 288C96 292.4 99.58 296 104 296H136C140.4 296 144 292.4 144 288V256C144 251.6 140.4 248 136 248H104C99.58 248 96 251.6 96 256V288zM224 256C224 242.7 234.7 232 248 232H280C293.3 232 304 242.7 304 256V288C304 301.3 293.3 312 280 312H248C234.7 312 224 301.3 224 288V256zM248 248C243.6 248 240 251.6 240 256V288C240 292.4 243.6 296 248 296H280C284.4 296 288 292.4 288 288V256C288 251.6 284.4 248 280 248H248zM136 104C149.3 104 160 114.7 160 128V160C160 173.3 149.3 184 136 184H104C90.75 184 80 173.3 80 160V128C80 114.7 90.75 104 104 104H136zM96 160C96 164.4 99.58 168 104 168H136C140.4 168 144 164.4 144 160V128C144 123.6 140.4 120 136 120H104C99.58 120 96 123.6 96 128V160zM224 128C224 114.7 234.7 104 248 104H280C293.3 104 304 114.7 304 128V160C304 173.3 293.3 184 280 184H248C234.7 184 224 173.3 224 160V128zM248 120C243.6 120 240 123.6 240 128V160C240 164.4 243.6 168 248 168H280C284.4 168 288 164.4 288 160V128C288 123.6 284.4 120 280 120H248zM48 512C21.49 512 0 490.5 0 464V48C0 21.49 21.49 0 48 0H336C362.5 0 384 21.49 384 48V464C384 490.5 362.5 512 336 512H48zM16 48V464C16 481.7 30.33 496 48 496H144V416C144 389.5 165.5 368 192 368C218.5 368 240 389.5 240 416V496H336C353.7 496 368 481.7 368 464V48C368 30.33 353.7 16 336 16H48C30.33 16 16 30.33 16 48zM224 496V416C224 398.3 209.7 384 192 384C174.3 384 160 398.3 160 416V496H224zM424 0C428.4 0 432 3.582 432 8V32H616C629.3 32 640 42.75 640 56V184C640 197.3 629.3 208 616 208H432V504C432 508.4 428.4 512 424 512C419.6 512 416 508.4 416 504V8C416 3.582 419.6 0 424 0zM432 192H616C620.4 192 624 188.4 624 184V56C624 51.58 620.4 48 616 48H432V192z"/></svg>
